X:205 
T:Tenpenny Piece, The 
S:Seamus Ennis
F:file ID: cre.5/205tenp_p
B:CRE5.063 (Piosa Deich bPingne)
Q:160
M:9/8
R:slip jig
K:G
d|gfg edB edB|gfg edB d2B|
g3 edB edB|ABA ABd e2:|
F|BAB GEE GEE|BAB GEF G2A|
BAB GEE GFE|DED DFG A2:|

%%%

